X:1
T:Luella (Whitney), 11.11.11.11
T:Luella (Whitney), 11.11.11.11
T:H. N. Whitney, 1869
T:Public Domain Courtesy of the Cyber Hymnal™
C:H. N. Whitney, 1869
Z:Public Domain
Z:Courtesy of the Cyber Hymnal™
%%score ( 1 2 ) ( 3 4 )
L:1/8
Q:1/4=110
M:4/4
K:A
V:1 treble 
V:2 treble 
V:3 bass 
V:4 bass 
V:1
 [Ec]2 [CA]2 [CE]2 [^B,^D]2 | [CE]4 [CA]4 | [DB]3 [D^A] [DB]2 [Ec]2 | (A4 E4) | %4
 [Ec]2 [CA]2 [CE]2 [^B,^D]2 | [CE]4 [EA]4 | [EG]3 [EG] [^DA]2 [DF]2 | E8 | E2 E2 [^DF]2 [=DG]2 | %9
 [DB]4 [CA]4 | [Ec]3 [Ec] [Ee]2 [EA]2 | (c4 B4) | [Ec]2 [CA]2 [CE]2 [^B,^D]2 | %13
 ([CE]2 [Ec]2) ([EA]2 [DF]2) | [CE]2 [Ec]2 [Dc]3 [DB] | [CA]8 |] %16
V:2
 x8 | x8 | x8 | C8 | x8 | x8 | x8 | E8 | E2 E2 x4 | x8 | x8 | E8 | x8 | x8 | x8 | x8 |] %16
V:3
 [A,,A,]2 [A,,A,]2 [A,,A,]2 [A,,A,]2 | [A,,A,]4 [A,,E,]4 | [E,G,]3 [E,^^F,] [E,G,]2 [E,G,]2 | %3
 [A,,A,]8 | [A,,A,]2 [A,,A,]2 [A,,A,]2 [A,,A,]2 | [A,,A,]4 [A,,C]4 | %6
 [B,,B,]3 [B,,G,] [B,,F,]2 [B,,A,]2 | [E,G,]8 | E,2 [E,G,]2 [E,A,]2 [E,B,]2 | [E,G,]4 [A,,A,]4 | %10
 A,3 A, [A,C]2 [C,A,]2 | (A,4 G,4) | [A,,A,]2 [A,,A,]2 [A,,A,]2 [A,,A,]2 | [A,,A,]4 A,4 | %14
 [E,A,]2 [E,A,]2 [E,G,]3 [E,G,] | [A,,A,]8 |] %16
V:4
 x8 | x8 | x8 | x8 | x8 | x8 | x8 | x8 | E,2 x6 | x8 | A,3 A, x4 | E,8 | x8 | x4 (C,2 D,2) | x8 | %15
 x8 |] %16

